X:1
T:The Star-Spangled Banner
%%score { 1 2 3 4 }
L:1/8
Q:1/4=120
M:3/4
K:G
V:1 treble nm="Piano" snm="Pno."
V:2 treble nm="Piano" snm="Pno."
V:3 treble-8 nm="Piano" snm="Pno."
V:4 bass nm="Piano" snm="Pno."
V:1
 D>B, |[M:3/4] G,2 B,2 D2 | G4 B>A | z2 B,2 ^C2 | D4 DD | B3 A G2 | F4 EF | G2 G2 D2 | %8
 B,2 G,2 D>B, | !tenuto!G,2 B,2 D2 | G4 B>A | G2 B,2 ^C2 | D4 DD | B3 A G2 | F4 EF | G2 G2 D2 | %16
 B,2 G,2 BB | B2 c2 d2 | d4 cB | A2 B2 c2 | c4 cc | B3 A G2 | F4 EF | G2 B,2 ^C2 | D4 DD | %25
 G2 G2 GF | E2 E2 E2 |[M:3/4] A2 cB AG | G2 F2 .DD | G3 A Bc | d4 GA | B3 c A2 | G4 z2 |] %33
V:2
 D>B, |[M:3/4] .G,2 B,2 D2 | E4 ^D>D | E2 B,2 A,2 | A,4 DD | D3 D D2 | D4 DD | D2 G2 D2 | %8
 B,2 G,2 D>B, | !tenuto!G,2 B,2 D2 | E4 ^D>D | E2 B,2 A,2 | A,4 DD | D3 D D2 | D4 DD | D2 G2 D2 | %16
 B,2 G,2 GG | G2 A2 B2 | B4 AG | F2 G2 A2 | A4 FF | G3 F G2 | D4 DD | D2 B,2 A,2 | A,4 DD | %25
 B,2 C2 D2 | C2 C2 C2 |[M:3/4] C2 CD E2 | D4 .DD | D4 DG | G4 EE | G3 G A2 | G4 z2 |] %33
V:3
 D>B, |[M:3/4] .G,2 G2 A2 | G4 F>F | G2 E2 G2 | F4 DD | G3 F G2 | A4 AA | G2 G2 D2 | B,2 G,2 D>B, | %9
 !tenuto!G,2 G2 A2 | G4 F>F | G2 E2 G2 | F4 DD | G3 F G2 | A4 AA | G2 G2 D2 | B,2 G,2 BB | %17
 B2 c2 d2 | d4 cB | A2 B2 c2 | c4 dd | d3 d d2 | d4 cc | G2 G2 E2 | F4 DD | G2 G2 G2 | G2 G2 ^G2 | %27
[M:3/4] A2 E2 cB | B2 A2 DD | G3 A Bc | d4 Bc | d3 e c2 | d4 z2 |] %33
V:4
 D,>B,, |[M:3/4] G,,2 G,,2 G,,2 | B,,4 B,,>B,, | B,,2 G,,2 A,,2 | A,,4 !tenuto!D,D, | %5
 G,,3 A,, B,,2 | D,4 C,C, | B,,2 G,,2 D,2 | B,,2 G,,2 D,>B,, | G,,2 G,,2 G,,2 | B,,4 B,,>B,, | %11
 B,,2 G,,2 A,,2 | A,,4 .D,D, | G,,3 A,, B,,2 | D,4 C,C, | B,,2 G,,2 D,2 | B,,2 G,,2 G,,G,, | %17
 G,,2 A,,2 B,,2 | B,,4 A,,G,, | F,,2 G,,2 A,,2 | A,,4 F,,F,, | G,,3 A,, B,,2 | A,,4 A,,A,, | %23
 B,,2 B,,2 A,,2 | D,4 D,D, | G,,2 A,,2 B,,2 | C,2 C,2 B,,2 |[M:3/4] A,,2 A,,B,, C,^C, | D,4 D,=C, | %29
 B,,3 D, G,[E,A,] | [G,B,]4 E,[E,G,] | !tenuto![D,G,]3 [D,G,] [D,F,]2 | [G,,G,]4 z2 |] %33

